/* XPM */
static char *graphic[] = {
"24 24 5 1",
". c #000000",
", c None",
"- c #41E16E",
"* c #FFFFFF",
"a c #3F3F3F",
"........................",
".,,,,,,,,,,,,,,,,,,,,,,.",
".,,..,,..,,.,,,.,.....,.",
".,.,,,.,,.,..,..,,...,,.",
".,.,,,.,,.,.,.,.,,,.,,,.",
".,,..,,..,,.,,,.,,,,,,,.",
".,,,,,,,,,,,,,,,,,,,,,,.",
"........................",
",,,,,,,,,,,,,,,,,,,,,,,,",
",,,,,,,,,,,,,,,,,,,,,,,,",
",,,,,,,,,,,,,,,,,,,,,,,,",
",,--------------------,,",
",-....................-,",
",-.**.a**.a**.a**.a**.-,",
",-.**.a**.a**.a**.a**.-,",
",-...aa..aa..aa..aa..a-,",
",-.aaaaaaaaaaaaaaaaaaa-,",
",,-.a**.a**.a**.a**.a-,,",
",,-.a**.a**.a**.a**.a-,,",
",,,-...aa..aa..aa..a-,,,",
",,,,----------------,,,,",
",,,,,,,,,,,,,,,,,,,,,,,,",
",,,,,,,,,,,,,,,,,,,,,,,,",
",,,,,,,,,,,,,,,,,,,,,,,,"
};
